X: 1674
T: Polska ur E L Lindblads notbok
B: [[http://www.smus.se/earkiv/fmk/browselarge.php?lang=sw&katalogid=M+177&bildnr=00098|SMUS - katalog M177 bild 98]] (no 9)
B: E L Lindblads notbok
S: efter [[Personer/E L Lindblad]]
R: Polska
Z: Nils L
M: 3/4
L: 1/16
O: Närke
K: Am
|: A4 A2^G2 A2^c2 | d4 d2>e2 d4 | =c4 c2A2 c2_B2 | G4 F2>G2 A4 | A4 A2^G2 A2^c2 | ^c4 d8 | =c4 c2A2 c2_B2 | G4 A8 :|
(:musicend:)
(:music:)
